X:80
T:the Fly-Flappers
B:Goulding and d'Almaine's Twenty-four Country Dances For the year 1826.
L:1/8
M:2/4
O:England
Z:Richard Robinson 
%%Dancenotes:The 1st Lady & 2d Gent: change places, 2d Lady & 1st Gent: do the same
%%Dancenotes:lead down the middle, up again & right & left
%%TUNEURL: http://www.leeds.ac.uk/music/Info/RRTuneBk/gettune/00000dea.html
%%ID:00000dea
K:D
|: dz dz | fddd  | ez ez | geee | fagf  | edcd | ez cz |1 dDFA :|2 d2 za ||
|: Az az | Az gz | Az fz | ecAc | dz dz | befg | fdec  |1 dafd :|2 dDFA |]
\newpage
